X: 1
T: The Missing Turn
T: 8x32R 3C (RSCDS Bk 46 - Craig Williams)
T: 1C TRC, TL; R3 across; 1C, 2-3 R&L; 1C TL; 312 S&L
P: Catherine Margaret Hall
C: Jimmy Ritchie
C: arr. T. Traub 2-17-2013
R: reel
M: 2/4
L: 1/8
K: A
e|"A"c2 "E7"c/d/c/B/|"A"Ac Ec/d/|"A"e>e "E7"f/e/c|"A"e2 ef/g/|"F#m"a>f "E"g>e|"D"fe cA|"B"Be "F#"^df|"E"ed cB||
"A"c2 "E"c/d/c/B/|"A"Ac Ec/d/|"A"e>e "E7"f/e/c|"A"e2 ef/g/|"F#m"a>f "C#m"g>e|"D"f/g/f/e/ "A"cA|"Bm"B>A "E"FE|"A"A2-Ac||
"F#m"f>f fc|ag fc|"F#m"f>g ag|"F#m"f2-fg/f/|"E"e>e eB/e/|"B7"gf "E"e/f/g/a/|"F#m"ba "B"gf|"E"ed cB||
"A"c2 "E7"c/d/c/B/|"A"Ac Ec/d/|"A"e>e "E7"f/e/c|"A"e2 ef/g/|"F#m"a>f "E"g>e|"D"f/g/f/e/ "A"cA|"Bm"B>A "E"FE|"A"A2-A |]
